X:1
T:Fredmans Epistel nr. 60
T:Fredmans Epistel nr. 60
T:Halfdan Kjerulf
T:C. M. Bellman
C:Halfdan Kjerulf
Z:C. M. Bellman
%%score [ 1 2 3 4 ]
L:1/8
Q:1/4=90
M:2/4
K:C
V:1 treble-8 nm="Tenor"
V:2 treble-8 nm="Tenor"
V:3 bass nm="Bass"
V:4 bass nm="Bass"
V:1
"^Allegro ma non troppo"!p! .c .c .c .e | c c c e | c G c e | c2 C2 |!mp! G A B c | d e f d | %6
w: 1.Sit- ter du än-|nu och lju- ger,|och ur fla- skan|su- ger,|hvälf- ver stop- pet|och så slu- ger|
w: 2.Kul- kus! in- tet|åt du kru- sar,|par- ten in nu|ru- sar!|Prä- ses sit- ter|ren och snu- sar,|
 e c d B | c4 :|"^marcato" e c f d | e c e d |"^poco ritenuto""^(Celli)" .e.c .g.e | (e2 d2) | %12
w: up- på spel- man|ser?|Sport- len de- lar;|spel- man spe- lar:|||
w: räk- nar mynt och|ler.|||||
"^a tempo, poco più vivo" G A B c |!<(! d e f g!<)! |"^ritenuto" .e .c .d .B | c4 |] %16
w: kloc- kan är, om|jag ej fe- lar,|elf- va el- ler|mer.|
w: ||||
V:2
!p! .c .c .c .G | c c c e | c G c G | (F/G/A/B/) c2 |!mp! G G G G | G G B G | c c c B | c4 :| %8
w: 1.Sit- ter du än-|nu och lju- ger,|och ur fla- skan|su- * * * ger,|hvälf- ver stop- pet|och så slu- ger|up- på spel- man|ser?|
w: 2.Kul- kus! in- tet|åt du kru- sar,|par- ten in nu|ru- * * * sar!|Prä- ses sit- ter|ren och snu- sar,|räk- nar mynt och|ler.|
 G c c B | G c c B | .c.e .c.e | (c2 B2) | G G G A |!<(! B c d B!<)! | .c .A .A .G | G4 |] %16
w: Sport- len de- lar;|spel- man spe- lar:|||kloc- kan är, om|jag ej fe- lar,|elf- va el- ler|mer.|
w: ||||||||
V:3
!mp! .E, .F, .G, .C | E, F, G, C | E, F, G, C | A,2 G,2 |!mp! E, F, D, E, | B,, C, D, B,, | %6
w: 1.Sit- ter du än-|nu och lju- ger,|och ur fla- skan|su- ger,|hvälf- ver stop- pet|och så slu- ger|
w: 2.Kul- kus! in- tet|åt du kru- sar,|par- ten in nu|ru- sar!|Prä- ses sit- ter|ren och snu- sar,|
 C, G, A, G, | E,4 :| G, A, A, B, | C G, G, G, | .C.G, .G,.G, | G,4 | G, G, G, G, | %13
w: up- på spel- man|ser?|Sport- len de- lar;|spel- man spe- lar:|||kloc- kan är, om|
w: räk- nar mynt och|ler.||||||
!<(! G, G, G, G,!<)! | .G, .A, .F, .G, | E,4 |] %16
w: jag ej fe- lar,|elf- va el- ler|mer.|
w: |||
V:4
!p! .C, .D, .E, .C, | C, D, E, C, | C, D, E, C, | F,2 E,2 |!mp! G,, G, G,, G, | G,, G, G,, G, | %6
w: 1.Sit- ter du än-|nu och lju- ger,|och ur fla- skan|su- ger,|hvälf- ver stop- pet|och så slu- ger|
w: 2.Kul- kus! in- tet|åt du kru- sar,|par- ten in nu|ru- sar!|Prä- ses sit- ter|ren och snu- sar,|
 C, E, F, G,, | C,4 :| C, F, D, G, | C, E, G, G, | .C.G, .E,.C, | (G,2 G,,2) | G, ^F, =F, E, | %13
w: up- på spel- man|ser?|Sport- len de- lar;|spel- man spe- lar:|||kloc- kan är, om|
w: räk- nar mynt och|ler.||||||
!<(! D, C, B,, G,,!<)! | .C, .F, .D, .G, | C,4 |] %16
w: jag ej fe- lar,|elf- va el- ler|mer.|
w: |||

